symbols/web/settings_brightness/materialsymbolssharp/settings_brightness_wght700gradN25_48px.svg

<svg xmlns="http://www.w3.org/2000/svg" height="48" width="48"><path d="m23.95 33.2 2.6-2.55H31V26.1l2.35-2.3-2.4-2.3v-4.45H26.5l-2.55-2.6-2.45 2.6h-4.4v4.4l-2.3 2.4 2.3 2.3v4.5h4.35Zm0-3.7V18.25q2.35 0 4 1.65t1.65 4q0 2.3-1.65 3.95-1.65 1.65-4 1.65ZM3 41V6.9h42.05V41Zm4.6-4.55v-24.9Zm0 0h32.85v-24.9H7.6Z"/></svg>

<svg xmlns="http://www.w3.org/2000/svg" height="48" width="48"><path d="M23.95 33.2 26.55 30.65H31V26.1L33.35 23.8L30.95 21.5V17.05H26.5L23.95 14.45L21.5 17.05H17.1V21.45L14.8 23.85L17.1 26.15V30.65H21.45ZM23.95 29.5V18.25Q26.3 18.25 27.95 19.9Q29.6 21.55 29.6 23.9Q29.6 26.2 27.95 27.85Q26.3 29.5 23.95 29.5ZM3 41V6.9H45.05V41ZM7.6 36.45V11.55ZM7.6 36.45H40.45V11.55H7.6Z"/></svg>
